!!!OTL: 522b. Jm Wald bei der Amsel.
!!!ODT: 1853
!!!ARE: Europa, Mitteleuropa, Deutschland, Hessen, Darmstadt, Dreieichenhain
!!!SCT: E0522A
!!!TXL: @@DE
!!!YEM: Copyright 1995, estate of Helmut Schaffrath.
**kern	**text
*ICvox	*
!! Mixed meters:  4/4; 3/4; 2/4
*M4/4	*
*met(c)	*
*k[b-]	*
*F:	*
!LO:TX:a:t=Langſam.	!
!LO:TX:a:t=Aus dem Heſſen-Darmſtädtiſchen (Dreieichenhain), 1853.	!
{8f	Ge-
8g	-ſtern
=1	=1
8.a	A-
16a	-bend
8a	in
8a	der
(4a	ſtil-
8g)	.
8a	-len
=2	=2
2b-	Ruh
4r}	.
{8b-	hört
8a	ich
=3	=3
8.g	in
16g	dem
8g	Wald
8g	einer
(4g	Am-
8f)	.
8g	-ſel
=4	=4
2a	ʒu.
2r}	.
=5	=5
*M3/4	*
{8.cc	Als
16b-	ich
8a	nun
8a	da
4cc	ſaß,
=6	=6
(16aqq	.
8g)	mei-
8g	-ner
8g	ganʒ
16fL	ver-
16gJ	.
4a	-gaß,
=7	=7
*M2/4	*
4r}	.
{8f	kam
8g	mein
=8	=8
*M4/4	*
*met(c)	*
8.a	Schatʒ
16a	und
8a	ſprach
8a	Jetʒt
(4cc	hab
8b-)	.
8a	ich
=9	=9
4.g}	dich,
{8a	und
8ccL	küß-
8b-J	.
4g	-te
=10	=10
4f	mich.
4r	.
4r}	.
==	==
!!!AGN: Liebes - Lied
!!!ONB: ESAC (Essen Associative Code) Database: ERK1
!!!AMT: irregular
!!!AIN: vox
!!!EED: Helmut Schaffrath
!!!EEV: 1.0
!!!GTL: Liebeslieder [Neuere (aus dem 18. bis 19. Jahrh.) - Liebeslust]
!!!URL-scan: https://rosdok.uni-rostock.de/mcrviewer/recordIdentifier/rosdok_ppn745177662/iview2/phys_0348.iview2?x=-4.404412318551749&y=37.61328379902989&scale=0.6456904138606623&rotation=0&layout=singlePageLayout
!!!ENC: Anna Maria Matuszewska
!!!EEV: 2024/10/12
*-	*-
